packages/icons/web/wallet_filled_large.svg

<svg width="24" height="24" viewBox="0 0 24 24" fill="none" xmlns="http://www.w3.org/2000/svg">
<path fill-rule="evenodd" clip-rule="evenodd" d="M14.1346 1.78609C15.4622 1.14881 17 2.11643 17 3.58914V5.4999H15V3.58914L11.0192 5.4999H6.39743L14.1346 1.78609ZM2 18.4999V9.4999C2 8.11919 3.11929 6.9999 4.5 6.9999H17.5556H19.5C20.8807 6.9999 22 8.11919 22 9.4999V11.1249H18C16.9645 11.1249 16.125 11.9644 16.125 12.9999V14.9999C16.125 16.0354 16.9645 16.8749 18 16.8749H22V18.4999C22 19.8806 20.8807 20.9999 19.5 20.9999H4.5C3.11929 20.9999 2 19.8806 2 18.4999ZM18 12.8749H22V15.1249H18C17.931 15.1249 17.875 15.0689 17.875 14.9999V12.9999C17.875 12.9309 17.931 12.8749 18 12.8749Z" fill="#212933"/>
</svg>

<svg width="24" height="24" fill="none" xmlns="http://www.w3.org/2000/svg">
    <path fill-rule="evenodd" clip-rule="evenodd" d="M14.135 1.786A2 2 0 0117 3.59V5.5h-2V3.59L11.02 5.5H6.396l7.738-3.713zM2 18.5v-9A2.5 2.5 0 014.5 7h15A2.5 2.5 0 0122 9.5v1.625h-4c-1.035 0-1.875.84-1.875 1.875v2c0 1.035.84 1.875 1.875 1.875h4V18.5a2.5 2.5 0 01-2.5 2.5h-15A2.5 2.5 0 012 18.5zm16-5.625h4v2.25h-4a.125.125 0 01-.125-.125v-2c0-.07.056-.125.125-.125z" fill="currentColor"/>
</svg>
